svg/u1f330.svg

<svg viewBox="0 0 128 128" xmlns="http://www.w3.org/2000/svg">
  <radialGradient id="SVGID_1_" cx="63.3448" cy="19.2411" gradientTransform="matrix(3.174587e-03 1 -2.5368 8.053489e-03 111.9554 -44.2583)" gradientUnits="userSpaceOnUse" r="79.4208">
    <stop offset="0.3481" stop-color="#A82209"/>
    <stop offset="1" stop-color="#543121"/>
  </radialGradient>
  <path d="M62.53,15.12c-3.27,0.16-8.43,5.56-8.43,5.56s-3.13,2.43-6.99,4.52 c-3.21,1.74-25.64,10.8-36.8,28.44c-8.36,13.23-10.99,32.13,3.33,48.28s34.96,15.32,34.96,15.32s24.64,1.17,34.47-0.67 c8.29-1.55,17.68-3.39,17.68-3.39s21.96-10.04,23.48-36.92c1.36-24.05-16.56-36.4-25.94-41.85c-5.26-3.05-18.22-9.94-23.31-13.81 C67.06,14.59,66.24,14.94,62.53,15.12z" fill="url(#SVGID_1_)"/>
  <path d="M64.17,27.79c0,0,3.15-3.58,4.89-5.21c1.74-1.63,4.13-3.37,4.13-3.37s-4.78-4.02-5.97-5.54 c-1.19-1.52-3.04-4.89-4.23-4.89c-1.19,0-2.61,4.13-4.02,6.08c-1.41,1.95-4.99,5.86-4.99,5.86s3.69,1.74,5.43,3.04 C61.13,25.08,64.17,27.79,64.17,27.79z" fill="#F5B03E"/>
  <path d="M50.6,106.67c-8.75,0.2-19.94,7.11-19.94,7.11s9.81,6.76,36.56,6.17 c26.75-0.59,35.54-7.89,35.54-7.89s-8.4-6.57-18.33-6.87c-8.16-0.24-9.74,2.36-17.7,2.56C58.76,107.95,59.36,106.47,50.6,106.67z" fill="#CF701E"/>
  <path d="M44.93,38.64C42.59,37.91,34.26,49.22,31,59.98c-2.92,9.66-2.39,18.79-0.15,26.87 c1.61,5.8,8.14,18.32,10.72,18.21c2.58-0.11-6.31-12.63-6.46-28.78c-0.17-18.55,3.08-22.47,5.87-28.19 C42.03,45.95,46.72,39.2,44.93,38.64z" fill="#543121"/>
  <path d="M61.77,46.03c-1.59,0-5.39,8.31-5.28,27.74c0.09,16.3,0.84,25.92,4.15,28.07 c2.25,1.46,1.28-22.57,1.24-27.96C61.77,61.64,63.91,46.03,61.77,46.03z" fill="#543121"/>
  <path d="M78.39,39.65c-1.91,0.9,1.01,7.3,2.7,17.86c1.06,6.66,1.91,22.12,1.12,28.86 c-0.79,6.74-3.82,15.05-0.34,15.16s6.85-10.56,5.95-29.87C86.93,52.34,80.17,38.82,78.39,39.65z" fill="#543121"/>
  <path d="M100.08,47.74c-2.02,1.35,3.48,9.88,4.15,24.26c0.67,14.37-5.17,31.11-3.14,31.11 c2.02,0,7.41-12.13,8.2-24.71C110.26,62.81,102.18,46.34,100.08,47.74z" fill="#543121"/>
  <path d="M34.61,40.56c-1.78-1.61-10.06-0.17-17.76,13.13c-6.46,11.15-4,18.89,0.34,19.65 c6.4,1.12,5.69-7.45,10.33-16.73C31.74,48.17,36.49,42.26,34.61,40.56z" fill="#D06150"/>
  <path d="M51,41.68c-2.46-0.86-4.47,4.91-5.39,8.09c-0.77,2.65-1.36,6.9,2.13,7.52 c3.88,0.7,4.39-4.37,4.6-8.09C52.51,46.29,53.24,42.47,51,41.68z" fill="#D06150"/>
</svg>

<svg viewBox="0 0 128 128" xmlns="http://www.w3.org/2000/svg">
  <defs>
    <radialGradient id="SVGID_1_" cx="19.442363" cy="-24.946369" gradientTransform="matrix(0.003175 1 -2.5368 0.008053 0 0)" gradientUnits="userSpaceOnUse" r="79.4208">
      <stop offset="0.3481" stop-color="#A82209"/>
      <stop offset="1" stop-color="#543121"/>
    </radialGradient>
  </defs>
  <path d="M62.53,15.12 C59.26,15.28 54.1,20.68 54.1,20.68 C54.1,20.68 50.97,23.11 47.11,25.2 C43.9,26.94 21.47,36 10.31,53.64 C1.95,66.87 -0.68,85.77 13.64,101.92 C27.96,118.07 48.6,117.24 48.6,117.24 C48.6,117.24 73.24,118.41 83.07,116.57 C91.36,115.02 100.75,113.18 100.75,113.18 C100.75,113.18 122.71,103.14 124.23,76.26 C125.59,52.21 107.67,39.86 98.29,34.41 C93.03,31.36 80.07,24.47 74.98,20.6 C67.06,14.59 66.24,14.94 62.53,15.12 Z" fill="url(#SVGID_1_)"/>
  <path d="M64.17,27.79 C64.17,27.79 67.32,24.21 69.06,22.58 C70.8,20.95 73.19,19.21 73.19,19.21 C73.19,19.21 68.41,15.19 67.22,13.67 C66.03,12.15 64.18,8.78 62.99,8.78 C61.8,8.78 60.38,12.91 58.97,14.86 C57.56,16.81 53.98,20.72 53.98,20.72 C53.98,20.72 57.67,22.46 59.41,23.76 C61.13,25.08 64.17,27.79 64.17,27.79 Z" fill="#F5B03E"/>
  <path d="M50.6,106.67 C41.85,106.87 30.66,113.78 30.66,113.78 C30.66,113.78 40.47,120.54 67.22,119.95 C93.97,119.36 102.76,112.06 102.76,112.06 C102.76,112.06 94.36,105.49 84.43,105.19 C76.27,104.95 74.69,107.55 66.73,107.75 C58.76,107.95 59.36,106.47 50.6,106.67 Z" fill="#CF701E"/>
  <path d="M44.93,38.64 C42.59,37.91 34.26,49.22 31,59.98 C28.08,69.64 28.61,78.77 30.85,86.85 C32.46,92.65 38.99,105.17 41.57,105.06 C44.15,104.95 35.26,92.43 35.11,76.28 C34.94,57.73 38.19,53.81 40.98,48.09 C42.03,45.95 46.72,39.2 44.93,38.64 Z" fill="#543121"/>
  <path d="M61.77,46.03 C60.18,46.03 56.38,54.34 56.49,73.77 C56.58,90.07 57.33,99.69 60.64,101.84 C62.89,103.3 61.92,79.27 61.88,73.88 C61.77,61.64 63.91,46.03 61.77,46.03 Z" fill="#543121"/>
  <path d="M78.39,39.65 C76.48,40.55 79.4,46.95 81.09,57.51 C82.15,64.17 83,79.63 82.21,86.37 C81.42,93.11 78.39,101.42 81.87,101.53 C85.35,101.64 88.72,90.97 87.82,71.66 C86.93,52.34 80.17,38.82 78.39,39.65 Z" fill="#543121"/>
  <path d="M100.08,47.74 C98.06,49.09 103.56,57.62 104.23,72 C104.9,86.37 99.06,103.11 101.09,103.11 C103.11,103.11 108.5,90.98 109.29,78.4 C110.26,62.81 102.18,46.34 100.08,47.74 Z" fill="#543121"/>
  <path d="M34.61,40.56 C32.83,38.95 24.55,40.39 16.85,53.69 C10.39,64.84 12.85,72.58 17.19,73.34 C23.59,74.46 22.88,65.89 27.52,56.61 C31.74,48.17 36.49,42.26 34.61,40.56 Z" fill="#D06150"/>
  <path d="M51,41.68 C48.54,40.82 46.53,46.59 45.61,49.77 C44.84,52.42 44.25,56.67 47.74,57.29 C51.62,57.99 52.13,52.92 52.34,49.2 C52.51,46.29 53.24,42.47 51,41.68 Z" fill="#D06150"/>
</svg>
